X: 1
T: False Proof, The
M: 6/8
L: 1/8
R: jig
K: Bmin
|:Bdf fef|fed c2f|edc B2B|ABd cAF|
Bdf fef|fed c2f|efe dcA|cBA B3:|
|:Bdc AcA|GFE F3|EDE G2E|EFG dcA|
Bdc AcA|GFE F2E|EDE e2d|cBA B3:|
|:BAB fBg|Bag fed|ded c2f|ede fdB|
BAB fBg|BaB bBb|bag fag|fgf ecA:|
|:BAB aBb|Bag fAa|Agf eAA|f3 ecA|
BAB b2b|c'ba b2c'|d'c'b agf|e3 edc:|
